src/images/icons/language.svg

<svg width="32" height="32" viewBox="0 0 32 32" fill="currentColor" xmlns="http://www.w3.org/2000/svg">
<path d="M26.0173 7.23212C23.5671 4.43925 19.9773 2.66669 16 2.66669C8.67658 2.66669 2.66669 8.67658 2.66669 16C2.66669 23.3235 8.67658 29.3334 16 29.3334C18.3495 29.3334 20.6354 28.6711 22.6522 27.4983C22.8177 27.4021 23.0156 27.3767 23.1984 27.4333L28.1717 28.9736C28.6745 29.1293 29.151 28.6682 29.0119 28.1605L27.5743 22.9164C27.5272 22.7444 27.5516 22.561 27.6379 22.4049C28.7185 20.4503 29.3334 18.2494 29.3334 16C29.3334 13.559 28.6657 11.264 27.5042 9.28877C27.0112 8.45025 25.7987 9.29804 26.2655 10.1098C27.2629 11.8444 27.8334 13.8556 27.8334 16C27.8334 22.5354 22.5354 27.8334 16 27.8334C9.46465 27.8334 4.16669 22.5354 4.16669 16C4.16669 9.46465 9.46465 4.16669 16 4.16669C19.5214 4.16669 22.6836 5.70486 24.8513 8.14598C25.4737 8.84694 26.6563 7.96055 26.0173 7.23212Z"/>
<path d="M7.56921 20.6705C7.07253 20.6705 6.7547 21.1928 7.02228 21.6112C7.91504 23.0072 9.1233 24.1789 10.555 25.0234C11.0832 25.3349 11.6451 24.7522 11.4364 24.1756C11.1082 23.269 10.8408 22.2726 10.6368 21.224C10.5748 20.905 10.2982 20.6705 9.97329 20.6705H7.56921ZM7.02225 10.3889C6.75467 10.8074 7.07251 11.3296 7.56918 11.3296H9.97329C10.2982 11.3296 10.5748 11.0951 10.6368 10.7761C10.8408 9.72753 11.1082 8.73115 11.4364 7.8245C11.6451 7.24788 11.0832 6.66518 10.555 6.97674C9.12327 7.82123 7.91498 8.99291 7.02225 10.3889ZM16 5.5C16 5.5 16.0263 5.50002 16.0014 5.50002C15.0351 5.53099 13.7943 7.39395 13.0796 10.5429C12.9873 10.9497 13.3026 11.3296 13.7197 11.3296H18.3338C18.7509 11.3296 19.0662 10.9497 18.9739 10.543C18.2646 7.41791 16.9632 5.5568 16 5.5ZM16 26.5C16.9629 26.4431 18.2645 24.5824 18.9739 21.4572C19.0662 21.0504 18.7509 20.6705 18.3337 20.6705H13.7198C13.3027 20.6705 12.9874 21.0504 13.0797 21.4572C13.7944 24.6062 15.0337 26.469 16 26.5ZM10.1931 14.3868C10.2151 13.9977 9.90917 13.6648 9.51944 13.6648H6.14809C5.83756 13.6648 5.56601 13.8789 5.50914 14.1842C5.2844 15.3906 5.28463 16.6093 5.50922 17.8157C5.56608 18.1211 5.83767 18.3353 6.14831 18.3353H9.51952C9.90922 18.3353 10.2151 18.0025 10.1931 17.6134C10.1323 16.5408 10.132 15.4639 10.1931 14.3868ZM21.5623 7.12812C21.0401 6.79582 20.4613 7.37273 20.6664 7.95672C20.9724 8.82787 21.2233 9.77872 21.417 10.7761C21.479 11.0951 21.7556 11.3296 22.0806 11.3296H24.2642C24.7608 11.3296 25.0788 10.8073 24.8121 10.3884C23.9787 9.07949 22.8722 7.96166 21.5623 7.12812ZM21.8608 17.6133C21.8387 18.0024 22.1447 18.3353 22.5344 18.3353H25.6853C25.9958 18.3353 26.2674 18.1213 26.3242 17.816C26.549 16.6096 26.549 15.3905 26.3242 14.1842C26.2674 13.8789 25.9958 13.6648 25.6853 13.6648H22.5344C22.1447 13.6648 21.8387 13.9977 21.8608 14.3868C21.9217 15.4621 21.9217 16.538 21.8608 17.6133Z"/>
<path d="M13.2097 13.6648C12.8632 13.6648 12.5736 13.9302 12.5522 14.2761C12.4812 15.4239 12.4812 16.5762 12.5522 17.724C12.5736 18.0699 12.8632 18.3353 13.2097 18.3353H18.8441C19.1906 18.3353 19.4802 18.0699 19.5016 17.724C19.5726 16.5762 19.5726 15.4239 19.5016 14.2761C19.4802 13.9302 19.1906 13.6648 18.8441 13.6648H13.2097ZM20.6664 24.0434C20.4613 24.6274 21.0401 25.2043 21.5623 24.872C22.8722 24.0385 23.9787 22.9206 24.8121 21.6117C25.0788 21.1928 24.7609 20.6705 24.2642 20.6705H22.0805C21.7556 20.6705 21.479 20.905 21.417 21.224C21.2232 22.2214 20.9724 23.1722 20.6664 24.0434Z"/>
</svg>

<svg xmlns="http://www.w3.org/2000/svg" fill="currentColor" viewBox="0 0 32 32">
  <path d="M25.9 8.264a.71.71 0 0 0 .117-1.032C23.567 4.44 19.977 2.667 16 2.667 8.677 2.667 2.667 8.677 2.667 16S8.677 29.333 16 29.333c2.35 0 4.635-.662 6.652-1.835a.685.685 0 0 1 .546-.065l4.974 1.54a.667.667 0 0 0 .84-.813l-1.438-5.244a.684.684 0 0 1 .064-.511c1.08-1.955 1.695-4.156 1.695-6.405 0-2.441-.667-4.736-1.829-6.711a.712.712 0 0 0-1.05-.19.78.78 0 0 0-.189 1.01A11.78 11.78 0 0 1 27.834 16c0 6.535-5.298 11.833-11.833 11.833S4.167 22.535 4.167 16 9.465 4.167 16 4.167c3.521 0 6.684 1.538 8.851 3.979a.777.777 0 0 0 1.048.118Z"/>
  <path d="M7.57 20.67c-.497 0-.815.523-.548.941a10.573 10.573 0 0 0 3.533 3.412c.528.312 1.09-.27.881-.847a19.882 19.882 0 0 1-.8-2.952.68.68 0 0 0-.663-.553H7.57Zm-.549-10.28c-.267.418.05.94.547.94h2.404a.68.68 0 0 0 .664-.553 19.81 19.81 0 0 1 .8-2.952c.208-.576-.354-1.159-.882-.847a10.573 10.573 0 0 0-3.533 3.412Zm9.052-4.882c-.025 0-.048-.007-.073-.007-.966.031-2.207 1.894-2.921 5.043a.648.648 0 0 0 .64.787h4.614c.417 0 .732-.38.64-.787-.71-3.125-1.936-4.979-2.9-5.036ZM16.001 26.5c.025 0 .048-.007.073-.007.963-.057 2.19-1.91 2.9-5.036a.648.648 0 0 0-.64-.787H13.72a.648.648 0 0 0-.64.787c.714 3.15 1.955 5.012 2.921 5.043ZM10.148 16c0-.536.016-1.076.046-1.613a.68.68 0 0 0-.674-.722H6.15a.644.644 0 0 0-.64.52A9.888 9.888 0 0 0 5.333 16c0 .622.066 1.226.176 1.816.057.305.329.52.64.52h3.37a.68.68 0 0 0 .674-.723A28.461 28.461 0 0 1 10.147 16Zm11.415-8.872c-.522-.332-1.1.245-.896.829.306.87.557 1.822.751 2.82a.68.68 0 0 0 .663.553h2.184c.497 0 .815-.523.548-.942a10.62 10.62 0 0 0-3.25-3.26ZM21.907 16c0 .536-.016 1.076-.046 1.613a.68.68 0 0 0 .673.722h3.151c.31 0 .582-.214.64-.519A9.89 9.89 0 0 0 26.5 16a9.89 9.89 0 0 0-.176-1.816.644.644 0 0 0-.639-.52h-3.15a.68.68 0 0 0-.674.723c.03.537.046 1.077.046 1.613Zm-8.697-2.335a.655.655 0 0 0-.658.611 27.864 27.864 0 0 0 0 3.448.655.655 0 0 0 .658.611h5.634a.655.655 0 0 0 .658-.611 27.942 27.942 0 0 0 0-3.448.655.655 0 0 0-.658-.611H13.21Zm7.456 10.378c-.205.584.374 1.161.896.829a10.62 10.62 0 0 0 3.25-3.26c.267-.42-.051-.941-.548-.941h-2.183a.68.68 0 0 0-.664.553 20.154 20.154 0 0 1-.75 2.82Z"/>
</svg>
